assets/01_base/Base_27.svg

<svg width="500" height="500" viewBox="0 0 500 500" fill="none" xmlns="http://www.w3.org/2000/svg">
<g clip-path="url(#clip0_70_351)">
<path d="M457.795 112.651C453.164 75.157 420.207 47 380.978 47H119.037C79.8078 47 46.8364 75.157 42.2196 112.651L0 453H81.2887L94.573 397.512H405.441L418.726 453H500.014L457.795 112.651ZM392.244 342.025H107.756C102.645 342.025 98.7543 337.284 99.5964 332.079C101.077 322.959 103.226 309.692 104.533 301.602C105.2 297.484 108.641 294.468 112.692 294.468H387.308C391.344 294.468 394.799 297.484 395.467 301.602C396.774 309.692 398.923 322.973 400.404 332.079C401.246 337.284 397.355 342.025 392.244 342.025Z" fill="#FF3C00"/>
<path d="M250.008 95.8905C273.02 95.8905 291.676 88.8993 291.676 80.2751C291.676 71.651 273.02 64.6597 250.008 64.6597C226.995 64.6597 208.34 71.651 208.34 80.2751C208.34 88.8993 226.995 95.8905 250.008 95.8905Z" fill="#2D3791"/>
</g>
<defs>
<clipPath id="clip0_70_351">
<rect width="500" height="406" fill="white" transform="translate(0 47)"/>
</clipPath>
</defs>
</svg>

<svg xmlns="http://www.w3.org/2000/svg" width="500" height="500" fill="none" viewBox="0 0 500 500"><g clip-path="url(#Base_27_svg_clip0_70_351)"><g clip-path="url(#Base_27_svg_clip1_70_351)"><path fill="#ff3c00" d="M457.795 112.651C453.164 75.157 420.207 47 380.978 47H119.037c-39.23 0-72.2 28.157-76.817 65.651L0 453h81.289l13.284-55.488h310.868L418.726 453h81.288zm-65.551 229.374H107.756c-5.111 0-9.002-4.741-8.16-9.946 1.481-9.12 3.63-22.387 4.937-30.477.667-4.118 4.108-7.134 8.159-7.134h274.616c4.036 0 7.491 3.016 8.159 7.134 1.307 8.09 3.456 21.371 4.937 30.477.842 5.205-3.049 9.946-8.16 9.946"/><path fill="#2d3791" d="M250.008 95.89c23.012 0 41.668-6.99 41.668-15.615S273.02 64.66 250.008 64.66c-23.013 0-41.668 6.991-41.668 15.615s18.655 15.615 41.668 15.615"/></g></g><defs><clipPath id="Base_27_svg_clip0_70_351"><rect width="500" height="500" fill="#fff"/></clipPath><clipPath id="Base_27_svg_clip1_70_351"><rect width="500" height="406" fill="#fff" transform="translate(0 47)"/></clipPath></defs></svg>
